X:23034
T:Will Ye No Come Back
R:Air
C:Trad.
O:Scotland
Z:Paul Hardy's Session Tunebook 2022 (see www.paulhardy.net). Creative Commons cc by-nc-sa licenced.
L:1/4
Q:1/4=120
M:4/4
K:G
"G"G>A B G|"C"E G "D"D2|"G"d>e d B|"D"B A A2|"G"G/2 G A/2 B G|"C"E G "D"D2|"G"d>e d B|"D7"A>G "G"G2||
"G"B d d d|"Bm"B>d d2|"C"g>f e d|"Am"e/2d/2c/2B/2 "D7"A2|"G"B<B A G|"C"E<G "D"D2|"C"e>d "G"d B|"D7"A>"G"G G2|]

